;FLAVOR:Marlin
;TIME:2342
;Filament used: 2.49015m
;Layer height: 0.2
;Generated with Cura_SteamEngine 1.2.1
M190 S35
M104 S220
M109 S220
G28
G1 Z50.00 F400
G92 E0
G1 F200 E3
G92 E0
M132 X Y Z A
M907 X100 Y100 Z50 A100
;LAYER_COUNT:27
;LAYER:0
M107
G0 F3000 X2.115 Y-2.921 Z0.3
;TYPE:SKIRT
G1 F1500 X2.743 Y2.424 E0.2685
G1 X3.68 Y7.773 E0.53942
G1 X4.239 Y10.323 E0.66966
G1 X4.892 Y12.947 E0.80457
G1 X6.422 Y18.138 E1.07456
G1 X8.237 Y23.216 E1.3436
G1 X10.332 Y28.175 E1.61218
G1 X12.596 Y32.866 E1.87205
G1 X12.659 Y33.003 E1.87957
G1 X14.455 Y37.044 E2.10019
G1 X14.67 Y37.625 E2.1311
G1 X14.752 Y37.94 E2.14734
G1 X14.999 Y39.038 E2.20349
G1 X15.096 Y39.649 E2.23435
G1 X15.116 Y40.09 E2.25637
G1 X15.117 Y45.005 E2.50158
G1 X15.029 Y45.921 E2.54749
G1 X14.936 Y46.4 E2.57184
G1 X14.903 Y46.556 E2.57979
G1 X14.776 Y47.111 E2.6082
G1 X14.484 Y47.987 E2.65427
G1 X12.482 Y52.497 E2.90044
G1 X12.195 Y53.046 E2.93135
G1 X11.975 Y53.375 E2.9511
G1 X11.351 Y54.232 E3.00398
G1 X10.955 Y54.709 E3.03491
G1 X10.685 Y54.972 E3.05372
G1 X7.024 Y58.273 E3.29965
G1 X6.539 Y58.657 E3.33051
G1 X6.211 Y58.864 E3.34986
G1 X5.285 Y59.399 E3.40322
G1 X4.73 Y59.674 E3.43412
G1 X4.322 Y59.823 E3.45579
G1 X-.64 Y61.381 E3.71526
G1 X-1.242 Y61.528 E3.74618
G1 X-1.622 Y61.579 E3.76531
G1 X-2.397 Y61.653 E3.80415
G1 X-3.016 Y61.672 E3.83504
G1 X-3.356 Y61.649 E3.85204
G1 X-8.126 Y61.146 E4.09134
G1 X-8.993 Y60.972 E4.13546
G1 X-10.131 Y60.633 E4.1947
G1 X-10.712 Y60.418 E4.2256
G1 X-11.158 Y60.192 E4.25055
G1 X-15.389 Y57.753 E4.4942
G1 X-15.905 Y57.409 E4.52514
G1 X-16.175 Y57.187 E4.54257
G1 X-17.007 Y56.45 E4.59803
G1 X-17.443 Y56.01 E4.62893
G1 X-17.717 Y55.665 E4.65091
G1 X-20.65 Y51.598 E4.90107
G1 X-20.979 Y51.073 E4.93198
G1 X-21.155 Y50.714 E4.95193
G1 X-21.554 Y49.802 E5.0016
G1 X-21.765 Y49.22 E5.03248
G1 X-21.853 Y48.869 E5.05053
G1 X-21.96 Y48.362 E5.07639
G1 X-21.959 Y48.362 E5.07644
G1 X-22.866 Y44.094 E5.29412
G1 X-22.956 Y43.482 E5.32498
G1 X-22.971 Y43.106 E5.34376
G1 X-22.973 Y42.033 E5.39729
G1 X-22.934 Y41.415 E5.42818
G1 X-22.864 Y41.006 E5.44888
G1 X-21.733 Y35.794 E5.71496
G1 X-21.67 Y35.537 E5.72817
G1 X-20.411 Y30.968 E5.96461
G1 X-19.802 Y28.36 E6.09822
G1 X-19.281 Y25.787 E6.2292
G1 X-18.426 Y20.427 E6.49999
G1 X-17.881 Y15.078 E6.76823
G1 X-17.638 Y9.703 E7.03667
G1 X-17.7 Y4.308 E7.30584
G1 X-18.067 Y-1.059 E7.57423
G1 X-18.737 Y-6.412 E7.84337
G1 X-19.713 Y-11.736 E8.11342
G1 X-20.293 Y-14.286 E8.24388
G1 X-20.963 Y-16.892 E8.37813
G1 X-22.541 Y-22.097 E8.64948
G1 X-24.386 Y-27.135 E8.91715
G1 X-26.523 Y-32.085 E9.18614
G1 X-28.935 Y-36.905 E9.45503
G1 X-31.607 Y-41.565 E9.72303
G1 X-35.094 Y-46.885 E10.04038
G1 X-35.399 Y-47.424 E10.07128
G1 X-35.59 Y-47.875 E10.09571
G1 X-37.43 Y-52.932 E10.36419
G1 X-37.603 Y-53.526 E10.39505
G1 X-37.699 Y-54.138 E10.42596
G1 X-37.719 Y-54.578 E10.44793
G1 X-37.718 Y-55.513 E10.49458
G1 X-37.677 Y-56.131 E10.52548
G1 X-37.558 Y-56.739 E10.55639
G1 X-37.429 Y-57.15 E10.57788
G1 X-35.653 Y-62.03 E10.83697
G1 X-35.404 Y-62.597 E10.86786
G1 X-34.987 Y-63.261 E10.90698
G1 X-34.325 Y-64.147 E10.96216
G1 X-33.923 Y-64.618 E10.99305
G1 X-33.464 Y-65.034 E11.02396
G1 X-32.88 Y-65.431 E11.05919
G1 X-28.26 Y-68.099 E11.32536
G1 X-27.705 Y-68.373 E11.35623
G1 X-27.119 Y-68.574 E11.38714
G1 X-26.763 Y-68.656 E11.40537
G1 X-25.808 Y-68.839 E11.45388
G1 X-25.194 Y-68.916 E11.48475
G1 X-24.633 Y-68.917 E11.51274
G1 X-20.098 Y-68.659 E11.73936
G1 X-14.686 Y-68.622 E12.00937
G1 X-9.308 Y-68.888 E12.27801
G1 X-4.494 Y-69.383 E12.51945
G1 X-3.875 Y-69.406 E12.55035
G1 X-3.169 Y-69.335 E12.58575
G1 X2.124 Y-68.401 E12.8539
G1 X2.726 Y-68.254 E12.88481
G1 X3.304 Y-68.031 E12.91572
G1 X3.686 Y-67.833 E12.93719
G1 X4.495 Y-67.367 E12.98377
G1 X5.01 Y-67.024 E13.01464
G1 X5.478 Y-66.618 E13.04555
G1 X5.799 Y-66.266 E13.06932
G1 X9.308 Y-62.021 E13.34409
G1 X9.671 Y-61.519 E13.37499
G1 X9.966 Y-60.975 E13.40587
G1 X10.129 Y-60.574 E13.42746
G1 X10.397 Y-59.822 E13.46729
G1 X10.567 Y-59.227 E13.49817
G1 X10.659 Y-58.614 E13.52909
G1 X10.676 Y-58.212 E13.54916
G1 X10.677 Y-52.985 E13.80994
G1 X10.637 Y-52.367 E13.84084
G1 X10.461 Y-51.56 E13.88205
G1 X10.141 Y-50.53 E13.93585
G1 X9.968 Y-50.06 E13.96084
G1 X8.975 Y-47.748 E14.08638
G1 X7.055 Y-42.707 E14.3555
G1 X5.427 Y-37.578 E14.62397
G1 X4.073 Y-32.294 E14.8961
G1 X3.537 Y-29.749 E15.02586
G1 X2.642 Y-24.405 E15.29618
G1 X2.055 Y-19.057 E15.5646
G1 X1.77 Y-13.684 E15.83304
G1 X1.791 Y-8.289 E16.1022
G1 X2.115 Y-2.921 E16.37049
G0 F3000 X1.716 Y-2.885
G1 F1500 X2.348 Y2.486 E16.6403
G1 X3.285 Y7.836 E16.91128
G1 X3.855 Y10.434 E17.04398
G1 X4.508 Y13.06 E17.17898
G1 X6.042 Y18.265 E17.4497
G1 X7.857 Y23.342 E17.71869
G1 X9.973 Y28.349 E17.98988
G1 X12.236 Y33.04 E18.24973
G1 X12.294 Y33.165 E18.2566
G1 X14.09 Y37.206 E18.47722
G1 X14.362 Y38.027 E18.52037
G1 X14.609 Y39.125 E18.57652
G1 X14.7 Y39.711 E18.60611
G1 X14.716 Y40.09 E18.62503
G1 X14.717 Y45.005 E18.87024
G1 X14.636 Y45.845 E18.91234
G1 X14.543 Y46.324 E18.93669
G1 X14.513 Y46.466 E18.94393
G1 X14.386 Y47.021 E18.97233
G1 X14.119 Y47.825 E19.0146
G1 X12.117 Y52.335 E19.26078
G1 X11.84 Y52.86 E19.29039
G1 X11.652 Y53.14 E19.30722
G1 X11.028 Y53.997 E19.36011
G1 X10.647 Y54.452 E19.38971
G1 X10.417 Y54.675 E19.4057
G1 X6.756 Y57.976 E19.65163
G1 X6.29 Y58.342 E19.68119
G1 X6.011 Y58.518 E19.69765
G1 X5.085 Y59.053 E19.751
G1 X4.553 Y59.314 E19.78057
G1 X4.202 Y59.441 E19.79919
G1 X-.76 Y60.999 E20.05866
G1 X-1.336 Y61.138 E20.08822
G1 X-1.66 Y61.181 E20.10453
G1 X-2.435 Y61.255 E20.14337
G1 X-3.314 Y61.251 E20.18722
G1 X-8.084 Y60.748 E20.42652
G1 X-8.879 Y60.589 E20.46697
G1 X-10.017 Y60.25 E20.52621
G1 X-10.573 Y60.043 E20.55581
G1 X-10.958 Y59.845 E20.5774
G1 X-15.189 Y57.406 E20.82105
G1 X-15.91 Y56.888 E20.86534
G1 X-16.742 Y56.151 E20.92079
G1 X-17.158 Y55.728 E20.95039
G1 X-17.393 Y55.431 E20.96929
G1 X-20.326 Y51.364 E21.21945
G1 X-20.639 Y50.86 E21.24905
G1 X-20.788 Y50.554 E21.26603
G1 X-21.187 Y49.642 E21.31569
G1 X-21.388 Y49.084 E21.34528
G1 X-21.461 Y48.787 E21.36054
G1 X-21.568 Y48.28 E21.38639
G1 X-22.475 Y44.011 E21.60413
G1 X-22.559 Y43.424 E21.63371
G1 X-22.571 Y43.105 E21.64964
G1 X-22.573 Y42.032 E21.70317
G1 X-22.534 Y41.441 E21.73272
G1 X-22.473 Y41.091 E21.75045
G1 X-21.342 Y35.879 E22.01653
G1 X-21.284 Y35.644 E22.0286
G1 X-20.03 Y31.092 E22.26416
G1 X-19.407 Y28.426 E22.40075
G1 X-18.887 Y25.86 E22.53137
G1 X-18.029 Y20.479 E22.80322
G1 X-17.483 Y15.118 E23.07207
G1 X-17.238 Y9.699 E23.3427
G1 X-17.301 Y4.293 E23.61242
G1 X-17.669 Y-1.1 E23.88211
G1 X-18.341 Y-6.466 E24.15191
G1 X-19.323 Y-11.824 E24.42367
G1 X-19.902 Y-14.369 E24.55389
G1 X-20.581 Y-17.011 E24.68998
G1 X-22.158 Y-22.214 E24.96122
G1 X-24.017 Y-27.289 E25.23087
G1 X-26.162 Y-32.258 E25.50088
G1 X-28.58 Y-37.09 E25.77045
G1 X-31.268 Y-41.777 E26.04001
G1 X-34.759 Y-47.104 E26.35776
G1 X-35.05 Y-47.621 E26.38736
G1 X-35.214 Y-48.012 E26.40851
G1 X-37.054 Y-53.069 E26.67699
G1 X-37.219 Y-53.638 E26.70655
G1 X-37.305 Y-54.225 E26.73615
G1 X-37.319 Y-54.578 E26.75377
G1 X-37.318 Y-55.513 E26.80042
G1 X-37.277 Y-56.104 E26.82997
G1 X-37.158 Y-56.685 E26.85956
G1 X-37.053 Y-57.013 E26.87674
G1 X-35.277 Y-61.893 E27.13583
G1 X-35.037 Y-62.435 E27.1654
G1 X-34.667 Y-63.022 E27.20002
G1 X-34.005 Y-63.908 E27.2552
G1 X-33.619 Y-64.358 E27.28478
G1 X-33.176 Y-64.752 E27.31436
G1 X-32.68 Y-65.084 E27.34413
G1 X-28.06 Y-67.752 E27.6103
G1 X-27.528 Y-68.014 E27.63989
G1 X-26.688 Y-68.263 E27.6836
G1 X-25.733 Y-68.446 E27.73211
G1 X-25.145 Y-68.518 E27.76166
G1 X-24.655 Y-68.518 E27.78611
G1 X-20.103 Y-68.259 E28.01358
G1 X-14.686 Y-68.222 E28.28384
G1 X-9.266 Y-68.491 E28.55458
G1 X-4.453 Y-68.985 E28.79596
G1 X-3.86 Y-69.006 E28.82556
G1 X-3.238 Y-68.941 E28.85676
G1 X2.055 Y-68.007 E29.12491
G1 X2.63 Y-67.865 E29.15446
G1 X3.182 Y-67.647 E29.18407
G1 X3.486 Y-67.487 E29.20121
G1 X4.295 Y-67.021 E29.24779
G1 X4.788 Y-66.691 E29.27738
G1 X5.232 Y-66.298 E29.30697
G1 X5.49 Y-66.011 E29.32622
G1 X8.999 Y-61.766 E29.60099
G1 X9.345 Y-61.285 E29.63055
G1 X9.624 Y-60.761 E29.66017
G1 X9.753 Y-60.44 E29.67743
G1 X10.021 Y-59.688 E29.71726
G1 X10.182 Y-59.117 E29.74686
G1 X10.264 Y-58.53 E29.77643
G1 X10.276 Y-58.212 E29.7923
G1 X10.277 Y-52.985 E30.05308
G1 X10.237 Y-52.393 E30.08268
G1 X10.079 Y-51.679 E30.11916
G1 X9.759 Y-50.649 E30.17297
G1 X9.6 Y-50.218 E30.19589
G1 X8.617 Y-47.928 E30.32022
G1 X6.674 Y-42.828 E30.5925
G1 X5.039 Y-37.677 E30.86212
G1 X3.681 Y-32.379 E31.13499
G1 X3.149 Y-29.851 E31.26387
G1 X2.246 Y-24.461 E31.53653
G1 X1.656 Y-19.087 E31.80625
G1 X1.37 Y-13.686 E32.07608
G1 X1.391 Y-8.281 E32.34574
G1 X1.716 Y-2.885 E32.61544
G0 F3000 X1.318 Y-2.851
G1 F1500 X1.953 Y2.55 E32.88675
G1 X2.893 Y7.917 E33.15859
G1 X3.462 Y10.51 E33.29103
G1 X4.12 Y13.156 E33.42706
G1 X5.662 Y18.386 E33.69909
G1 X7.488 Y23.496 E33.96982
G1 X9.616 Y28.534 E34.24267
G1 X11.875 Y33.214 E34.50193
G1 X11.928 Y33.327 E34.50816
G1 X13.724 Y37.368 E34.72878
G1 X13.971 Y38.115 E34.76803
G1 X14.218 Y39.213 E34.82418
G1 X14.303 Y39.772 E34.85239
G1 X14.316 Y40.09 E34.86827
G1 X14.317 Y45.005 E35.11348
G1 X14.244 Y45.768 E35.15172
G1 X14.151 Y46.247 E35.17606
G1 X14.123 Y46.377 E35.18269
G1 X13.996 Y46.932 E35.2111
G1 X13.753 Y47.663 E35.24953
G1 X11.751 Y52.173 E35.49571
G1 X11.329 Y52.904 E35.53782
G1 X10.705 Y53.761 E35.59071
G1 X10.15 Y54.378 E35.63211
G1 X6.489 Y57.679 E35.87804
G1 X5.811 Y58.171 E35.91984
G1 X4.885 Y58.706 E35.97319
G1 X4.377 Y58.954 E36.00139
G1 X4.082 Y59.059 E36.01701
G1 X-.88 Y60.617 E36.27649
G1 X-1.698 Y60.783 E36.31813
G1 X-2.473 Y60.857 E36.35697
G1 X-3.272 Y60.853 E36.39683
G1 X-8.042 Y60.35 E36.63613
G1 X-8.765 Y60.206 E36.67291
G1 X-9.903 Y59.867 E36.73215
G1 X-10.432 Y59.667 E36.76036
G1 X-10.759 Y59.498 E36.77873
G1 X-14.99 Y57.059 E37.02237
G1 X-15.644 Y56.588 E37.06258
G1 X-16.476 Y55.851 E37.11803
G1 X-16.872 Y55.447 E37.14626
G1 X-17.068 Y55.197 E37.16211
G1 X-20.001 Y51.13 E37.41227
G1 X-20.299 Y50.649 E37.4405
G1 X-20.422 Y50.393 E37.45467
G1 X-20.821 Y49.481 E37.50433
G1 X-21.07 Y48.704 E37.54504
G1 X-21.177 Y48.197 E37.57089
G1 X-22.084 Y43.928 E37.78863
G1 X-22.171 Y43.104 E37.82996
G1 X-22.173 Y42.031 E37.8835
G1 X-22.134 Y41.467 E37.9117
G1 X-22.082 Y41.176 E37.92645
G1 X-20.951 Y35.964 E38.19253
G1 X-20.898 Y35.75 E38.20353
G1 X-19.641 Y31.187 E38.43966
G1 X-19.021 Y28.531 E38.57573
G1 X-18.493 Y25.929 E38.70819
G1 X-17.632 Y20.529 E38.981
G1 X-17.083 Y15.142 E39.25115
G1 X-16.838 Y9.713 E39.52228
G1 X-16.901 Y4.279 E39.7934
G1 X-17.271 Y-1.143 E40.06453
G1 X-17.946 Y-6.534 E40.33559
G1 X-18.928 Y-11.893 E40.6074
G1 X-19.516 Y-14.478 E40.73967
G1 X-20.195 Y-17.12 E40.87576
G1 X-21.777 Y-22.336 E41.14769
G1 X-23.649 Y-27.449 E41.41934
G1 X-25.794 Y-32.418 E41.68936
G1 X-28.225 Y-37.276 E41.96037
G1 X-30.922 Y-41.978 E42.23081
G1 X-34.425 Y-47.323 E42.54964
G1 X-34.7 Y-47.817 E42.57784
G1 X-34.838 Y-48.148 E42.59574
G1 X-36.678 Y-53.205 E42.86421
G1 X-36.833 Y-53.749 E42.89243
G1 X-36.919 Y-54.577 E42.93396
G1 X-36.918 Y-55.512 E42.98061
G1 X-36.877 Y-56.076 E43.00882
G1 X-36.677 Y-56.876 E43.04996
G1 X-34.901 Y-61.756 E43.30905
G1 X-34.67 Y-62.272 E43.33726
G1 X-34.346 Y-62.782 E43.3674
G1 X-33.684 Y-63.668 E43.42258
G1 X-33.315 Y-64.096 E43.45077
G1 X-32.889 Y-64.468 E43.47899
G1 X-32.48 Y-64.738 E43.50344
G1 X-27.86 Y-67.406 E43.7696
G1 X-27.352 Y-67.653 E43.79779
G1 X-26.613 Y-67.871 E43.83623
G1 X-25.658 Y-68.054 E43.88474
G1 X-25.096 Y-68.12 E43.91297
G1 X-24.678 Y-68.119 E43.93382
G1 X-20.109 Y-67.859 E44.16214
G1 X-14.669 Y-67.822 E44.43355
G1 X-9.243 Y-68.091 E44.70459
G1 X-4.412 Y-68.587 E44.94687
G1 X-3.847 Y-68.605 E44.97507
G1 X-3.308 Y-68.547 E45.00212
G1 X1.985 Y-67.613 E45.27027
G1 X2.533 Y-67.476 E45.29845
G1 X3.287 Y-67.14 E45.33963
G1 X4.096 Y-66.674 E45.38621
G1 X4.564 Y-66.358 E45.41438
G1 X4.984 Y-65.979 E45.44261
G1 X5.182 Y-65.757 E45.45745
G1 X8.691 Y-61.512 E45.73222
G1 X9.02 Y-61.051 E45.76048
G1 X9.376 Y-60.306 E45.80167
G1 X9.644 Y-59.554 E45.8415
G1 X9.796 Y-59.009 E45.86973
G1 X9.876 Y-58.212 E45.90969
G1 X9.877 Y-52.985 E46.17047
G1 X9.837 Y-52.421 E46.19868
G1 X9.697 Y-51.797 E46.23058
G1 X9.377 Y-50.767 E46.28439
G1 X9.233 Y-50.376 E46.30518
G1 X8.239 Y-48.06 E46.43092
G1 X6.299 Y-42.97 E46.70268
G1 X4.655 Y-37.788 E46.97391
G1 X3.293 Y-32.475 E47.24754
G1 X2.751 Y-29.903 E47.37868
G1 X1.849 Y-24.516 E47.65118
G1 X1.257 Y-19.116 E47.9222
G1 X0.97 Y-13.707 E48.19244
G1 X0.991 Y-8.273 E48.46354
G1 X1.318 Y-2.851 E48.73454
G0 F3000 X0.919 Y-2.814
G1 F1500 X1.554 Y2.594 E49.0062
G1 X2.502 Y8.002 E49.28012
G1 X3.076 Y10.621 E49.41388
G1 X3.73 Y13.247 E49.5489
G1 X5.282 Y18.513 E49.82279
G1 X7.116 Y23.645 E50.09468
G1 X9.242 Y28.676 E50.36717
G1 X11.515 Y33.387 E50.62813
G1 X11.563 Y33.49 E50.6338
G1 X13.359 Y37.531 E50.85442
G1 X13.581 Y38.203 E50.88973
G1 X13.828 Y39.301 E50.94588
G1 X13.916 Y40.09 E50.98549
G1 X13.917 Y45.005 E51.2307
G1 X13.851 Y45.692 E51.26513
G1 X13.758 Y46.171 E51.28947
G1 X13.733 Y46.288 E51.29544
G1 X13.606 Y46.843 E51.32385
G1 X13.387 Y47.501 E51.35845
G1 X11.385 Y52.011 E51.60462
G1 X11.005 Y52.669 E51.64253
G1 X10.381 Y53.526 E51.69542
G1 X9.882 Y54.081 E51.73266
G1 X6.221 Y57.382 E51.97859
G1 X5.611 Y57.825 E52.0162
G1 X4.685 Y58.36 E52.06955
G1 X3.962 Y58.678 E52.10896
G1 X-1 Y60.236 E52.36843
G1 X-1.736 Y60.385 E52.40589
G1 X-2.511 Y60.459 E52.44474
G1 X-3.231 Y60.455 E52.48066
G1 X-8.001 Y59.952 E52.71995
G1 X-8.651 Y59.822 E52.75302
G1 X-9.789 Y59.483 E52.81226
G1 X-10.29 Y59.292 E52.83901
G1 X-10.559 Y59.152 E52.85414
G1 X-14.79 Y56.713 E53.09779
G1 X-15.379 Y56.289 E53.134
G1 X-16.211 Y55.552 E53.18945
G1 X-16.744 Y54.963 E53.22908
G1 X-19.677 Y50.896 E53.47924
G1 X-20.055 Y50.233 E53.51732
G1 X-20.454 Y49.321 E53.56698
G1 X-20.678 Y48.621 E53.60365
G1 X-20.785 Y48.114 E53.6295
G1 X-21.692 Y43.845 E53.84724
G1 X-21.771 Y43.104 E53.88441
G1 X-21.773 Y42.031 E53.93795
G1 X-21.691 Y41.261 E53.97658
G1 X-20.56 Y36.049 E54.24266
G1 X-20.513 Y35.856 E54.25257
G1 X-19.253 Y31.281 E54.48932
G1 X-18.626 Y28.597 E54.62683
G1 X-18.1 Y26.002 E54.75892
G1 X-17.235 Y20.58 E55.03285
G1 X-16.683 Y15.164 E55.30445
G1 X-16.438 Y9.726 E55.57603
G1 X-16.501 Y4.265 E55.8485
G1 X-16.873 Y-1.185 E56.12104
G1 X-17.549 Y-6.584 E56.3925
G1 X-18.538 Y-11.979 E56.66614
G1 X-19.127 Y-14.569 E56.79865
G1 X-19.813 Y-17.238 E56.93614
G1 X-21.399 Y-22.469 E57.20885
G1 X-23.271 Y-27.581 E57.48045
G1 X-25.437 Y-32.598 E57.75308
G1 X-27.871 Y-37.461 E58.02439
G1 X-30.587 Y-42.198 E58.29681
G1 X-34.09 Y-47.543 E58.61563
G1 X-34.35 Y-48.012 E58.64239
G1 X-34.462 Y-48.285 E58.65711
G1 X-36.302 Y-53.342 E58.92559
G1 X-36.447 Y-53.858 E58.95233
G1 X-36.519 Y-54.577 E58.98838
G1 X-36.518 Y-55.512 E59.03502
G1 X-36.477 Y-56.047 E59.06179
G1 X-36.301 Y-56.739 E59.09742
G1 X-34.525 Y-61.619 E59.3565
G1 X-34.305 Y-62.108 E59.38325
G1 X-34.026 Y-62.543 E59.40904
G1 X-33.364 Y-63.429 E59.46422
G1 X-33.012 Y-63.833 E59.49095
G1 X-32.604 Y-64.181 E59.5177
G1 X-32.28 Y-64.392 E59.53699
G1 X-27.66 Y-67.06 E59.80316
G1 X-27.177 Y-67.292 E59.82989
G1 X-26.538 Y-67.478 E59.86309
G1 X-25.583 Y-67.661 E59.91161
G1 X-25.05 Y-67.722 E59.93837
G1 X-24.701 Y-67.719 E59.95578
G1 X-20.134 Y-67.459 E60.184
G1 X-14.669 Y-67.422 E60.45666
G1 X-9.201 Y-67.693 E60.72979
G1 X-4.371 Y-68.189 E60.97203
G1 X-3.835 Y-68.204 E60.99878
G1 X-3.377 Y-68.153 E61.02177
G1 X1.916 Y-67.219 E61.28992
G1 X2.435 Y-67.087 E61.31664
G1 X3.087 Y-66.793 E61.35232
G1 X3.896 Y-66.327 E61.3989
G1 X4.339 Y-66.026 E61.42562
G1 X4.874 Y-65.502 E61.46298
